X: 67
T: Louis Riel Reel
M:4/4
R:reel
C: Andy DeJarlis
L:1/8
S:Patti Kusturok Lamoureux OTFFAS Fiddle 
Z:Alf 
K:G
|: EFED B,DEF|G2E2 BAFE|D2F/{G}F/D A,2DE|FAdB AFD2|
EFED B,DEF|G2E2 BAFG|ADFA BAFA|GE{F}EF E4:|
|:BcBA Bded|B2c/2B/2A BGE2|B2c/2B/2A Bdef|[1 gefd e4:|[2 gefd e2ef|
|:g2gf e2ef|geBe geag|fd2d d3e|fdAd fdef|g2 (3agf e2ef|
geBe g4| gfed cBAF|[1 GE{F}ED E2ef:|[2 GE{F}ED E4|]
